Numix-GalliumOS/32/actions/package-installed-locked.svg

<?xml version="1.0" encoding="UTF-8" standalone="no"?>
<svg
   xmlns:dc="http://purl.org/dc/elements/1.1/"
   xmlns:cc="http://creativecommons.org/ns#"
   xmlns:rdf="http://www.w3.org/1999/02/22-rdf-syntax-ns#"
   xmlns:svg="http://www.w3.org/2000/svg"
   xmlns="http://www.w3.org/2000/svg"
   xmlns:sodipodi="http://sodipodi.sourceforge.net/DTD/sodipodi-0.dtd"
   xmlns:inkscape="http://www.inkscape.org/namespaces/inkscape"
   width="32"
   height="32"
   viewBox="0 0 32 32"
   id="svg2"
   version="1.1"
   inkscape:version="0.91 r"
   sodipodi:docname="package-available-locked.svg">
  <metadata
     id="metadata18">
    <rdf:RDF>
      <cc:Work
         rdf:about="">
        <dc:format>image/svg+xml</dc:format>
        <dc:type
           rdf:resource="http://purl.org/dc/dcmitype/StillImage" />
        <dc:title />
      </cc:Work>
    </rdf:RDF>
  </metadata>
  <defs
     id="defs16" />
  <sodipodi:namedview
     pagecolor="#ffffff"
     bordercolor="#666666"
     borderopacity="1"
     objecttolerance="10"
     gridtolerance="10"
     guidetolerance="10"
     inkscape:pageopacity="0"
     inkscape:pageshadow="2"
     inkscape:window-width="1366"
     inkscape:window-height="747"
     id="namedview14"
     showgrid="true"
     inkscape:zoom="7.3750001"
     inkscape:cx="28.78169"
     inkscape:cy="19.63877"
     inkscape:window-x="0"
     inkscape:window-y="21"
     inkscape:window-maximized="1"
     inkscape:current-layer="svg2">
    <inkscape:grid
       type="xygrid"
       id="grid3010" />
  </sodipodi:namedview>
  <path
     style="fill:#c19553"
     d="M 2 0 C 1.128906 0 0 1.128906 0 2 L 0 28 C 0 28.824219 1.175781 30 2 30 L 28 30 C 28.824219 30 30 28.824219 30 28 L 30 2 C 30 1.175781 28.824219 0 28 0 Z "
     id="path4" />
  <g
     style="fill:#fff"
     id="g6">
    <path
       style="fill-opacity:.196"
       d="M 2 0 C 1.128906 0 0 1.128906 0 2 L 0 10 C 3.386719 10 26.613281 10 30 10 L 30 2 C 30 1.175781 28.824219 0 28 0 Z "
       id="path8" />
    <path
       style="fill-opacity:.392"
       d="M 12 4 L 12 16 L 18 16 L 18 4 Z "
       id="path10" />
  </g>
  <g
     id="g4152"
     transform="matrix(0.5,0,0,0.5,17,16)">
    <path
       id="path4142"
       d="m 16,0 c 0,0 10,0.0195312 10.011719,7.09375 l 0,6.109375 c 0,0 3.988281,0 3.988281,1.605469 l 0,14.644531 C 30,30.800781 28.570312,32 27,32 L 5,32 C 3.429688,32 2,30.800781 2,29.453125 L 2,14.808594 C 2,13.203125 6.042969,13.191406 6.042969,13.191406 L 5.917969,7.09375 C 6,0.0078125 16,0 16,0 Z m 0,3.550781 c 0,0 -6,0 -6,5.3125 l 0,4.339844 12,0 0,-4.339844 c 0,-5.3125 -6,-5.3125 -6,-5.3125 z"
       style="fill:#859900"
       inkscape:connector-curvature="0" />
    <path
       id="path4144"
       d="m 16,18 c -2.210938,0 -4,1.789062 -4,4 0,1.480469 0.804688,2.746094 2,3.4375 L 14,30 l 4,0 0,-4.5625 C 19.195312,24.746094 20,23.480469 20,22 20,19.789062 18.210938,18 16,18 Z"
       style="fill:#000000;fill-opacity:0.10199998;fill-rule:evenodd"
       inkscape:connector-curvature="0" />
  </g>
</svg>

<svg xmlns="http://www.w3.org/2000/svg" viewBox="0 0 32 32">
 <path d="m 2 0 c -0.871 0 -2 1.129 -2 2 l 0 26 c 0 0.824 1.176 2 2 2 l 26 0 c 0.824 0 2 -1.176 2 -2 l 0 -26 c 0 -0.824 -1.176 -2 -2 -2 Z" style="fill:#c19553"/>
 <g style="fill:#fff">
  <path d="m 2 0 c -0.871 0 -2 1.129 -2 2 l 0 8 c 3.387 0 26.613 0 30 0 l 0 -8 c 0 -0.824 -1.176 -2 -2 -2 Z" style="fill-opacity:0.196"/>
  <path d="m 12 4 l 0 12 l 6 0 l 0 -12 Z" style="fill-opacity:0.392"/>
 </g>
 <g transform="matrix(0.5,0,0,0.5,17,16)">
  <path d="m 16 0 c 0 0 10 0.02 10.01 7.094 l 0 6.109 c 0 0 3.988 0 3.988 1.605 l 0 14.645 c 0 1.348 -1.43 2.547 -3 2.547 l -22 0 c -1.57 0 -3 -1.199 -3 -2.547 l 0 -14.645 c 0 -1.605 4.04 -1.617 4.04 -1.617 l -0.125 -6.098 c 0.082 -7.086 10.08 -7.094 10.08 -7.094 m 0 3.551 c 0 0 -6 0 -6 5.313 l 0 4.34 12 0 0 -4.34 c 0 -5.313 -6 -5.313 -6 -5.313 z" style="fill:#859900"/>
  <path d="m 16 18 c -2.211 0 -4 1.789 -4 4 0 1.48 0.805 2.746 2 3.438 l 0 4.563 l 4 0 0 -4.563 c 1.195 -0.691 2 -1.957 2 -3.438 0 -2.211 -1.789 -4 -4 -4" style="fill:#000;fill-opacity:0.102;fill-rule:evenodd"/>
 </g>
</svg>
